X:1
T:D Major. D minor Walter Janes, 1803
T:Walter Janes, 1803 
T:Ode on the Dissolution of Time
T:Transcribed from The Massachusetts Harmony, 1803.
%%score [ 1 2 3 ]
L:1/8
M:4/4
K:D
V:1 treble nm="Treble" snm="Tr."
V:2 treble-8 nm="Tenor" snm="T."
V:3 bass nm="Bass" snm="B."
V:1
 F2 |[Q:1/4=90] A2 A2 BA GF | GA (3Bcd c4 | z2 A2 AF DF | !wedge!A z GA B2 e>d | %5
 !wedge!c z2 d dc BA | E2 ^G4 A2- | A4 z2 F2 | D2 B2 A2 A2- | A2 A6 |[M:2/2] z4 z2 A2 | %11
 A2 d2 c2 B2 | A2 AB/c/ d2 d2 | ed cB A2 A2 | B2 c2 d2 A2 | B2 d2 c2 B2 | A4 z2 A2 | c<e ag f2 e2 | %18
 [df]6 z2 |[M:4/4] z4 z2 A2 | d3 c d2 z e | f3 e (d>fe>g | f2 ^g2 a2) z e | f2 f2 f2 z f/e/ | %24
 d2 d2 e2 z d | cd ed c2 z A | cd e>f d2 z2 | d4 f3 e | ag fe f4 | z4 f2 fe | d2 c2 d4 |: %31
[K:Bb] z4 d4 | d6 c2 | !fermata!B4 z2 d2 | c4 B4 | !fermata!A4 z2 d2 | e4 d4 | c6 A2 | B4 (A2 G2) | %39
 !fermata!^F4 z2 F2 | G4 D4 | E4 C4 | F6 dc | B4 A4 | G4 ^F4 | G8 :|[K:D][M:2/4] z2 D2 | E2 F2 | %48
 G2 B2 | A2 c2 | d2 z D | F2 A2 | B3 d | c>d cB | A2 z A | dd e2 | e2 f2- | f2 z2 | %58
[M:3/4] B2 G2 AG | F4 D2 | E4 G2 | !fermata!F2 z2 D2 | (F2 G2) A2 | !wedge!B2 !wedge!B2 z2 | %64
 cded c/d/c/B/ | !fermata!A2 z2 A2 |[M:2/2] fe dc B2 (3Bcd | c4 z2 B2 |[M:3/4] (B2 A2) d2 | %69
 !wedge!c2 !wedge!c2 z2 | defB A/B/A/G/ | F2 z2 A2 |[M:2/2] dA A[GB] FD E2 | FGAg fed[ce] | %74
 [df]4 z4 |] %75
V:2
"^Ga   –   briel,  the         her  –  ald     of       the      skies,        With       gol – den  trump,  through   e   –   ther     flies.    Proclaiming," AB/c/ | %1
 d2 AB/c/ dc BA | GF ED A4 | z2 AB/c/ dA Bc | !wedge!d z (3Bcd eB cd | !wedge!e z2 f d2 d2 | %6
"^\"Time's  no    more,\"            Pro–clai–ming, \"Time's no more.\"                             Those migh – ty  orbs,  that         fla –  ming     roll,     Dif –" cA B4 A2- | %7
 A4 z2 A2 | d2 e/f/g f2 e2- | e2 d6 |[M:2/2] z8 | z8 | z4 z2 (3GAB | %13
"^– fu  –  sing   light   from        pole     to     pole,  Stand         silent    and   a – dore,      Stand  si  –  lent     and   a  –  dore.                             That" A2 (3ABc d2 (3def | %14
 ed cB A2 (3ABc | d2 B2 A2 ^G2 | A4 z2 f2 | g<e c<A B2 c2 | d6 z2 |[M:4/4] z4 z2 D2 | %20
"^God,  whose breath makes oceans  heave, _________________________       Amd sturdy oaks    their beds to leave,   And  stur – dy   oaks     their" F3 A BA z A | %21
 d3 A (B>dc>e | d2) z4 z A | d2 d2 d2 z F | G2 G2 G2 z d | ed cd e2 z c/d/ | %26
"^beds   to      leave,   Blew out the burning  sun,    Blew out the burning sun.                      Lo!     earth lies  veiled   in   dismal gloom,  Th'Al–" ea cB A2 z2 | %27
 A4 d3 g | fe dc d4 | z4 A2 dg | f2 e2 d4 |:[K:Bb] z4 (d2 c2) | B6 A2 | !fermata!G4 z2 B2 | A4 G4 | %35
 !fermata!^F4 z2 d2 | %36
"^–migh–ty's  palm was nature's tomb,  And thus time ceased to run,  And  thus  time  ceased  to   run.                    But soon th'Al–migh–ty's" c4 (d3 e) | %37
 f6 e2 | d4 (c2 B2) | !fermata!A4 z2 BA | G4 F4 | c4 A4 | B6 fe | d4 (c2 A2) | B4 A4 | G8 :| %46
[K:D][M:2/4] z2 D2 | E2 F2 | G2 B2 | %49
"^presence bright  Adorned the  east  with  heav'n – ly  light,    The  light that lit the sun.                 Gabrel proclaimed with solemn sound, The" A2 c2 | %50
 d2 z D | F2 AG | d3 B | c>B cd | e2 z f | dd c2 | c2 d2- | d2 z2 |[M:3/4] B2 B2 F2 | B4 d2 | %60
 c4 B2 | !fermata!^A2 z2 A2 | %62
"^hea    –    vens  echo          all ___________   a      –      round;      E     –    ter  –  ni   –   ty's   be    –    gun.    The         hea     –     vens        echo" (d>c B2) A2 | %63
 !wedge!d2 !wedge!d2 z2 | efgf e/f/e/d/ | !fermata!c2 z2 A2 |[M:2/2] dc BA E2 ^G2 | A4 z2 d2 | %68
[M:3/4] (e>d c2) (3Bcd | !wedge!e2 !wedge!e2 z2 | %70
"^all ___________  a      –     round,       E     –    ter  –  ni  –  ty's    be     –     gun,          E–ter–ni    –    ty's  be–gun." fgag f/g/f/e/ | %71
 d2 z2 d2 |[M:2/2] fa Ag f2 e2 | defg a (3b/a/g/fe | d4 z4 |] %75
V:3
 D,2 | D,2 D,2 D,2 D,2 | E,D, C,B,, A,,4 | z2 D,2 D,2 D,2 | !wedge!D, z G,2 E,2 E,2 | %5
 !wedge!A, z2 D, G,2 B,2 | A,2 E,4 A,,2- | A,,4 z2 F,2 | G,2 E,2 A,2 A,2- | A,2 D,6 | %10
[M:2/2] z4 z2 A,,2 | D,2 (3D,E,F, E,2 (3E,F,G, | F,2 (3F,G,A, G,2 z2 | z8 | z4 z2 D,>C, | %15
 B,,2 G,,2 A,,2 E,2 | A,,4 z2 D,2 | E,2 F,2 G,2 A,2 | D,6 z2 |[M:4/4] z4 z2 D,2 | %20
"^_______________________________________________________________________\nEdited by B. C. Johnston, 2016\n   1. Measure 50, Bass: first note changed from G to A." D,3 D, G,F, z A, | %21
 D,3 F, (G,2 A,2 | D,2 E,2 F,2) z E, | D,2 D,2 D,2 z D, | D,2 D,2 C,2 z D, | A,2 A,2 A,2 z A, | %26
 A,2 A,2 D,2 z2 | D,4 D,3 E, | F,G,A,A,, D,4 | (D,2 E,2 F,2) G,2 | A,2 A,2 D,4 |:[K:Bb] z4 D,4 | %32
 G,6 ^F,2 | !fermata!G,4 z2 B,,2 | F,4 G,4 | !fermata!D,4 z2 D,E, | F,4 B,4 | F,6 F,2 | G,4 G,,4 | %39
 !fermata!D,4 z2 D,2 | E,4 D,4 | C,4 F,4 | B,,6 B,,C, | D,4 F,4 | G,4 D,4 | G,,8 :| %46
[K:D][M:2/4] z2 D,2 | E,2 F,2 | G,2 B,2 | A,2 C2 | D2 z D, | F,2 A,2 | G,3 B, | A,2 A,2 | %54
 A,2 z F, | G,B, A,2 | A,2 D,2- | D,2 z2 |[M:3/4] E,2 E,2 F,2 | B,,4 B,2 | A,4 E,2 | %61
 !fermata!F,2 z2 D,2 | (D,2 E,2) F,2 | !wedge!G,2 !wedge!G,2 z2 | A,4 ^G,2 | !fermata!A,2 z2 A,2 | %66
[M:2/2] D,2 D,2 E,2 E,2 | A,,4 z2 G,2 |[M:3/4] (E,2 F,2) G,2 | !wedge!A,2 !wedge!A,2 z2 | D4 C2 | %71
 D2 z2 D2 |[M:2/2] D,2 F,E, F,B, A,/B,/C | DA,D,E, F,G,A,A, | D,4 z4 |] %75

